;FLAVOR:Marlin
;TIME:18124
;Filament used: 12.1142m
;Layer height: 0.2
;MINX:12.138
;MINY:20.947
;MINZ:0.2
;MAXX:224.562
;MAXY:210.377
;MAXZ:24
;TARGET_MACHINE.NAME:Creality Ender-3
;Generated with Cura_SteamEngine 5.10.0
M140 S70
M105
M190 S70
M104 S240
M105
M109 S240
; Ender 3 Custom Start G-code
G92 E0 ; Reset Extruder
G28 ; Home all axes
G1 Z2.0 F3000 ; Move Z Axis up little to prevent scratching of Heat Bed
G1 X0.1 Y20 Z0.3 F5000.0 ; Move to start position
G1 X0.1 Y200.0 Z0.3 F1500.0 E15 ; Draw the first line
G1 X0.4 Y200.0 Z0.3 F5000.0 ; Move to side a little
G1 X0.4 Y20 Z0.3 F1500.0 E30 ; Draw the second line
G92 E0 ; Reset Extruder
G1 Z2.0 F3000 ; Move Z Axis up little to prevent scratching of Heat Bed
G1 X5 Y20 Z0.3 F5000.0 ; Move over to prevent blob squish
M82 ;absolute extrusion mode
G92 E0
G92 E0
G1 F2700 E-5
;LAYER_COUNT:95
;LAYER:0
M107
G0 F6000 X33.739 Y102.731 Z0.2
;TYPE:SKIRT
G1 F2700 E0
G1 F900 X34.72 Y102.498 E0.03354
G1 X35.613 Y102.365 E0.06356
G1 X36.823 Y102.298 E0.10387
G1 X37.348 Y102.297 E0.12133
G1 X38.355 Y102.344 E0.15486
G1 X39.25 Y102.462 E0.18489
G1 X40.352 Y102.709 E0.22245
G1 X41.439 Y103.069 E0.26053
G1 X41.858 Y103.234 E0.27551
G1 X42.779 Y103.647 E0.30908
G1 X43.605 Y104.109 E0.34056
G1 X44.839 Y104.981 E0.39082
G1 X45.235 Y105.304 E0.40781
G1 X45.984 Y105.977 E0.44131
G1 X46.631 Y106.667 E0.47277
G1 X47.533 Y107.863 E0.52259
G1 X48.118 Y108.807 E0.55953
G1 X48.626 Y109.808 E0.59686
G1 X49.001 Y110.744 E0.6304
G1 X49.264 Y111.607 E0.66041
G1 X49.414 Y112.26 E0.68269
G1 X49.511 Y112.752 E0.69937
G1 X49.661 Y113.75 E0.73294
G1 X49.723 Y114.755 E0.76643
G1 X49.702 Y115.658 E0.79647
G1 X49.579 Y116.744 E0.83282
G1 X49.473 Y117.323 E0.8524
G1 X49.383 Y117.74 E0.86659
G1 X49.137 Y118.674 E0.89871
G1 X48.891 Y119.385 E0.92373
G1 X48.769 Y119.703 E0.93506
G1 X48.377 Y120.594 E0.96744
G1 X47.875 Y121.508 E1.00212
G1 X47.34 Y122.309 E1.03416
G1 X46.927 Y122.838 E1.05648
G1 X46.628 Y123.198 E1.07205
G1 X45.949 Y123.944 E1.1056
G1 X45.286 Y124.557 E1.13563
G1 X44.412 Y125.232 E1.17236
G1 X43.791 Y125.636 E1.197
G1 X43.467 Y125.832 E1.20959
G1 X42.596 Y126.304 E1.24254
G1 X41.272 Y126.85 E1.29018
G1 X40.943 Y126.961 E1.30173
G1 X40.032 Y127.221 E1.33324
G1 X38.397 Y127.5 E1.3884
G1 X37.221 Y127.571 E1.42759
G1 X36.146 Y127.547 E1.46335
G1 X35.116 Y127.431 E1.49783
G1 X34.331 Y127.278 E1.52443
G1 X33.898 Y127.176 E1.53922
G1 X32.929 Y126.898 E1.57275
G1 X32.021 Y126.55 E1.60509
G1 X31.064 Y126.082 E1.64053
G1 X30.003 Y125.421 E1.6821
G1 X29.587 Y125.124 E1.6991
G1 X28.849 Y124.545 E1.7303
G1 X28.074 Y123.821 E1.76558
G1 X27.639 Y123.349 E1.78693
G1 X27.37 Y123.038 E1.8006
G1 X26.746 Y122.245 E1.83416
G1 X26.213 Y121.432 E1.8665
G1 X25.741 Y120.555 E1.89962
G1 X25.564 Y120.187 E1.91321
G1 X25.172 Y119.259 E1.94671
G1 X24.86 Y118.297 E1.98035
G1 X24.644 Y117.347 E2.01275
G1 X24.501 Y116.301 E2.04787
G1 X24.463 Y115.888 E2.06166
G1 X24.422 Y114.882 E2.09515
G1 X24.461 Y113.98 E2.12518
G1 X24.618 Y112.823 E2.16401
G1 X24.71 Y112.338 E2.18043
G1 X24.943 Y111.359 E2.2139
G1 X25.24 Y110.464 E2.24527
G1 X25.779 Y109.252 E2.28938
G1 X25.944 Y108.935 E2.30127
G1 X26.46 Y108.047 E2.33543
G1 X27.036 Y107.229 E2.3687
G1 X27.544 Y106.619 E2.39511
G1 X27.841 Y106.286 E2.40995
G1 X28.56 Y105.552 E2.44412
G1 X29.245 Y104.964 E2.47415
G1 X30.155 Y104.315 E2.51132
G1 X31.004 Y103.819 E2.54403
G1 X32.161 Y103.289 E2.58635
G1 X32.781 Y103.05 E2.60845
G1 X33.739 Y102.731 E2.64204
G0 F6000 X33.832 Y103.12
G1 F900 X34.779 Y102.894 E2.67442
G1 X35.672 Y102.761 E2.70445
G1 X36.824 Y102.698 E2.74282
G1 X37.33 Y102.697 E2.75965
G1 X38.303 Y102.741 E2.79205
G1 X39.198 Y102.859 E2.82207
G1 X40.226 Y103.089 E2.85711
G1 X41.313 Y103.449 E2.89519
G1 X41.695 Y103.599 E2.90884
G1 X42.584 Y103.996 E2.94123
G1 X43.41 Y104.458 E2.9727
G1 X44.586 Y105.291 E3.02064
G1 X44.968 Y105.602 E3.03702
G1 X45.692 Y106.251 E3.06936
G1 X46.339 Y106.941 E3.10082
G1 X47.193 Y108.074 E3.14801
G1 X47.762 Y108.989 E3.18385
G1 X48.255 Y109.957 E3.21998
G1 X48.618 Y110.861 E3.25238
G1 X48.881 Y111.724 E3.28238
G1 X49.022 Y112.338 E3.30334
G1 X49.116 Y112.812 E3.31941
G1 X49.262 Y113.775 E3.35181
G1 X49.323 Y114.746 E3.38417
G1 X49.302 Y115.649 E3.41421
G1 X49.186 Y116.672 E3.44845
G1 X49.082 Y117.239 E3.46762
G1 X48.996 Y117.638 E3.4812
G1 X48.75 Y118.572 E3.51332
G1 X48.518 Y119.242 E3.53691
G1 X48.403 Y119.542 E3.54759
G1 X48.026 Y120.402 E3.57882
G1 X47.542 Y121.286 E3.61234
G1 X47.024 Y122.063 E3.6434
G1 X46.619 Y122.583 E3.66533
G1 X46.332 Y122.929 E3.68028
G1 X45.677 Y123.65 E3.71268
G1 X45.014 Y124.263 E3.74271
G1 X44.194 Y124.897 E3.77718
G1 X43.584 Y125.294 E3.80139
G1 X43.276 Y125.48 E3.81336
G1 X42.405 Y125.952 E3.84631
G1 X41.144 Y126.471 E3.89166
G1 X40.833 Y126.576 E3.90258
G1 X39.922 Y126.836 E3.93409
G1 X38.373 Y127.101 E3.98636
G1 X37.23 Y127.171 E4.02444
G1 X36.155 Y127.147 E4.06021
G1 X35.193 Y127.038 E4.09241
G1 X34.408 Y126.885 E4.11901
G1 X34.008 Y126.791 E4.13268
G1 X33.072 Y126.524 E4.16505
G1 X32.164 Y126.176 E4.19739
G1 X31.276 Y125.742 E4.23027
G1 X30.215 Y125.081 E4.27184
G1 X29.834 Y124.809 E4.28741
G1 X29.096 Y124.23 E4.31861
G1 X28.368 Y123.55 E4.35174
G1 X27.941 Y123.087 E4.37269
G1 X27.684 Y122.79 E4.38576
G1 X27.081 Y122.026 E4.41813
G1 X26.548 Y121.213 E4.45046
G1 X26.101 Y120.381 E4.48188
G1 X25.932 Y120.031 E4.4948
G1 X25.552 Y119.135 E4.52717
G1 X25.25 Y118.208 E4.5596
G1 X25.04 Y117.293 E4.59082
G1 X24.899 Y116.265 E4.62534
G1 X24.863 Y115.871 E4.63849
G1 X24.822 Y114.899 E4.67085
G1 X24.861 Y113.997 E4.70088
G1 X25.011 Y112.897 E4.73781
G1 X25.099 Y112.43 E4.75361
G1 X25.323 Y111.484 E4.78595
G1 X25.606 Y110.626 E4.81599
G1 X26.134 Y109.437 E4.85927
G1 X26.299 Y109.12 E4.87115
G1 X26.787 Y108.277 E4.90355
G1 X27.344 Y107.485 E4.93575
G1 X27.843 Y106.885 E4.96171
G1 X28.127 Y106.566 E4.97591
G1 X28.821 Y105.856 E5.00894
G1 X29.506 Y105.268 E5.03896
G1 X30.357 Y104.66 E5.07375
G1 X31.171 Y104.183 E5.10513
G1 X32.328 Y103.653 E5.14746
G1 X32.908 Y103.429 E5.16813
G1 X33.832 Y103.12 E5.20054
G0 F6000 X33.925 Y103.509
G1 F900 X34.838 Y103.29 E5.23177
G1 X35.731 Y103.157 E5.2618
G1 X36.825 Y103.098 E5.29824
G1 X37.313 Y103.097 E5.31447
G1 X38.251 Y103.138 E5.3457
G1 X39.146 Y103.256 E5.37572
G1 X40.1 Y103.469 E5.40823
G1 X41.187 Y103.829 E5.44632
G1 X41.532 Y103.964 E5.45864
G1 X42.39 Y104.346 E5.48988
G1 X43.179 Y104.785 E5.51991
G1 X44.334 Y105.602 E5.56696
G1 X44.701 Y105.9 E5.58269
G1 X45.4 Y106.525 E5.61387
G1 X46.047 Y107.215 E5.64533
G1 X46.854 Y108.286 E5.68994
G1 X47.406 Y109.171 E5.72463
G1 X47.884 Y110.107 E5.75958
G1 X48.235 Y110.978 E5.79082
G1 X48.498 Y111.841 E5.82082
G1 X48.63 Y112.416 E5.84045
G1 X48.721 Y112.873 E5.85594
G1 X48.863 Y113.801 E5.88717
G1 X48.923 Y114.737 E5.91836
G1 X48.902 Y115.64 E5.94841
G1 X48.793 Y116.6 E5.98054
G1 X48.691 Y117.155 E5.99931
G1 X48.609 Y117.537 E6.0123
G1 X48.372 Y118.441 E6.04339
G1 X48.144 Y119.099 E6.06655
G1 X48.036 Y119.382 E6.07662
G1 X47.675 Y120.21 E6.10667
G1 X47.209 Y121.064 E6.13902
G1 X46.691 Y121.841 E6.17008
G1 X46.311 Y122.328 E6.19063
G1 X46.036 Y122.66 E6.20497
G1 X45.405 Y123.356 E6.23621
G1 X44.742 Y123.969 E6.26625
G1 X43.975 Y124.562 E6.29849
G1 X43.377 Y124.952 E6.32224
G1 X43.085 Y125.129 E6.3336
G1 X42.253 Y125.582 E6.3651
G1 X40.992 Y126.101 E6.41046
G1 X40.723 Y126.191 E6.41989
G1 X39.812 Y126.451 E6.4514
G1 X38.348 Y126.702 E6.50081
G1 X37.238 Y126.771 E6.5378
G1 X36.199 Y126.749 E6.57236
G1 X35.269 Y126.645 E6.60349
G1 X34.5 Y126.496 E6.62954
G1 X34.117 Y126.406 E6.64262
G1 X33.215 Y126.15 E6.67381
G1 X32.339 Y125.816 E6.70499
G1 X31.488 Y125.402 E6.73647
G1 X30.427 Y124.741 E6.77804
G1 X30.081 Y124.494 E6.79218
G1 X29.343 Y123.915 E6.82338
G1 X28.662 Y123.278 E6.8544
G1 X28.243 Y122.825 E6.87492
G1 X27.998 Y122.542 E6.88737
G1 X27.415 Y121.806 E6.9186
G1 X26.9 Y121.023 E6.94977
G1 X26.461 Y120.207 E6.98059
G1 X26.3 Y119.874 E6.99289
G1 X25.932 Y119.011 E7.0241
G1 X25.64 Y118.118 E7.05534
G1 X25.436 Y117.238 E7.08539
G1 X25.297 Y116.229 E7.11927
G1 X25.263 Y115.854 E7.13179
G1 X25.222 Y114.916 E7.16302
G1 X25.261 Y114.014 E7.19305
G1 X25.404 Y112.971 E7.22806
G1 X25.488 Y112.522 E7.24325
G1 X25.703 Y111.609 E7.27445
G1 X25.986 Y110.751 E7.3045
G1 X26.489 Y109.621 E7.34564
G1 X26.645 Y109.32 E7.35692
G1 X27.114 Y108.507 E7.38813
G1 X27.652 Y107.741 E7.41927
G1 X28.142 Y107.151 E7.44477
G1 X28.426 Y106.832 E7.45898
G1 X29.082 Y106.16 E7.49021
G1 X29.767 Y105.572 E7.52024
G1 X30.56 Y105.005 E7.55266
G1 X31.338 Y104.547 E7.58269
G1 X32.495 Y104.017 E7.62502
G1 X33.035 Y103.808 E7.64428
G1 X33.925 Y103.509 E7.6755
G0 F6000 X34.019 Y103.898
G1 F900 X34.897 Y103.686 E7.70555
G1 X35.79 Y103.553 E7.73558
G1 X36.826 Y103.498 E7.77008
G1 X37.296 Y103.497 E7.78571
G1 X38.199 Y103.535 E7.81577
G1 X39.094 Y103.653 E7.8458
G1 X39.975 Y103.849 E7.87582
G1 X41.041 Y104.201 E7.91316
G1 X41.37 Y104.33 E7.92491
G1 X42.196 Y104.696 E7.95496
G1 X42.985 Y105.135 E7.98499
G1 X44.082 Y105.912 E8.0297
G1 X44.435 Y106.199 E8.04483
G1 X45.109 Y106.799 E8.07485
G1 X45.728 Y107.456 E8.10487
G1 X46.515 Y108.498 E8.1483
G1 X47.05 Y109.354 E8.18187
G1 X47.513 Y110.257 E8.21563
G1 X47.852 Y111.095 E8.24569
G1 X48.115 Y111.958 E8.2757
G1 X48.238 Y112.495 E8.29402
G1 X48.326 Y112.934 E8.30891
G1 X48.464 Y113.827 E8.33897
G1 X48.523 Y114.728 E8.369
G1 X48.502 Y115.631 E8.39904
G1 X48.4 Y116.528 E8.42907
G1 X48.3 Y117.071 E8.44743
G1 X48.222 Y117.436 E8.45985
G1 X47.994 Y118.31 E8.48989
G1 X47.771 Y118.956 E8.51262
G1 X47.669 Y119.222 E8.52209
G1 X47.308 Y120.05 E8.55214
G1 X46.876 Y120.843 E8.58217
G1 X46.376 Y121.595 E8.61221
G1 X46.003 Y122.073 E8.63237
G1 X45.739 Y122.392 E8.64615
G1 X45.133 Y123.062 E8.67619
G1 X44.47 Y123.675 E8.70623
G1 X43.756 Y124.227 E8.73624
G1 X43.17 Y124.61 E8.75953
G1 X42.893 Y124.778 E8.7703
G1 X42.101 Y125.212 E8.80034
G1 X40.864 Y125.722 E8.84484
G1 X40.612 Y125.807 E8.85369
G1 X39.744 Y126.057 E8.88373
G1 X38.323 Y126.303 E8.9317
G1 X37.246 Y126.371 E8.96759
G1 X36.243 Y126.351 E9.00096
G1 X35.345 Y126.252 E9.031
G1 X34.576 Y126.103 E9.05706
G1 X34.226 Y126.021 E9.06901
G1 X33.357 Y125.776 E9.09904
G1 X32.513 Y125.456 E9.12906
G1 X31.7 Y125.062 E9.15911
G1 X30.639 Y124.401 E9.20069
G1 X30.327 Y124.179 E9.21343
G1 X29.616 Y123.623 E9.24345
G1 X28.956 Y123.007 E9.27347
G1 X28.545 Y122.562 E9.29362
G1 X28.311 Y122.293 E9.30548
G1 X27.749 Y121.586 E9.33552
G1 X27.252 Y120.833 E9.36553
G1 X26.821 Y120.033 E9.39575
G1 X26.668 Y119.716 E9.40746
G1 X26.312 Y118.886 E9.4375
G1 X26.03 Y118.028 E9.46754
G1 X25.826 Y117.148 E9.49758
G1 X25.695 Y116.193 E9.52964
G1 X25.663 Y115.836 E9.54156
G1 X25.622 Y114.933 E9.57163
G1 X25.661 Y114.031 E9.60166
G1 X25.797 Y113.045 E9.63476
G1 X25.878 Y112.613 E9.64938
G1 X26.083 Y111.734 E9.6794
G1 X26.366 Y110.876 E9.70945
G1 X26.844 Y109.805 E9.74846
G1 X26.992 Y109.519 E9.75917
G1 X27.442 Y108.736 E9.78921
G1 X27.96 Y107.996 E9.81925
G1 X28.44 Y107.417 E9.84426
G1 X28.713 Y107.111 E9.8579
G1 X29.343 Y106.464 E9.88794
G1 X30.028 Y105.876 E9.91797
G1 X30.763 Y105.35 E9.94803
G1 X31.541 Y104.892 E9.97805
G1 X32.639 Y104.39 E10.01821
G1 X33.163 Y104.187 E10.0369
G1 X34.019 Y103.898 E10.06695
G1 F2700 E5.06695
;MESH:guia-2.stl(1)
G0 F6000 X36.623 Y113.082
G0 X36.939 Y114.128
G0 X37.177 Y115.111
;TYPE:WALL-INNER
G1 F2700 E10.06695
G1 F833.3 X37.258 Y115.051 E10.07057
G1 F831.4 X37.288 Y114.928 E10.07513
G1 X37.23 Y114.783 E10.08075
G1 X37.089 Y114.708 E10.0865
G1 X36.948 Y114.737 E10.09168
G1 X36.853 Y114.858 E10.09722
G1 X36.835 Y114.955 E10.10077
G1 X36.872 Y115.056 E10.10465
G1 X36.978 Y115.151 E10.10977
G1 X37.127 Y115.148 E10.11514
G1 F833.3 X37.177 Y115.111 E10.11737
G0 F6000 X37.411 Y115.459
G1 F900 X37.492 Y115.417 E10.12041
G1 X37.624 Y115.264 E10.12713
G1 X37.709 Y114.904 E10.13943
G1 X37.656 Y114.691 E10.14673
G1 X37.546 Y114.505 E10.15392
G1 X37.367 Y114.356 E10.16166
G1 X37.141 Y114.289 E10.1695
G1 X36.779 Y114.354 E10.18174
G1 X36.573 Y114.513 E10.19039
G1 X36.46 Y114.707 E10.19786
G1 X36.414 Y114.938 E10.20569
G1 X36.505 Y115.262 E10.21689
G1 X36.613 Y115.399 E10.22269
G1 X36.805 Y115.539 E10.23059
G1 X36.976 Y115.576 E10.23641
G1 X37.221 Y115.559 E10.24458
G1 X37.411 Y115.459 E10.25172
G0 F6000 X37.641 Y115.803
;TYPE:WALL-OUTER
G1 F900 X37.764 Y115.715 E10.25675
G1 X37.976 Y115.469 E10.26755
G1 X38.083 Y115.167 E10.27821
G1 X38.113 Y114.88 E10.28781
G1 X38.034 Y114.535 E10.29958
G1 X37.851 Y114.238 E10.31118
G1 X37.559 Y113.996 E10.3238
G1 X37.191 Y113.886 E10.33657
G1 X36.902 Y113.899 E10.34619
G1 X36.617 Y113.985 E10.35609
G1 X36.423 Y114.1 E10.36359
G1 X36.255 Y114.265 E10.37143
G1 X36.082 Y114.561 E10.38283
G1 X36.01 Y114.916 E10.39488
G1 X36.029 Y115.131 E10.40206
G1 X36.153 Y115.46 E10.41375
G1 X36.333 Y115.69 E10.42346
G1 X36.639 Y115.913 E10.43606
G1 X36.947 Y115.978 E10.44653
G1 X37.311 Y115.954 E10.45866
G1 X37.579 Y115.847 E10.46826
G1 X37.641 Y115.803 E10.47079
G0 F6000 X37.091 Y114.952
G1 F2700 E5.47079
;MESH:NONMESH
G0 F300 X37.091 Y114.952 Z0.4
G0 F6000 X36.939 Y114.128
G0 X36.623 Y113.082
G0 X34.019 Y103.898
;TIME_ELAPSED:26.913845
;LAYER:1
;note -- min layer time used
M106 S42.5
;TYPE:SKIRT
G1 F2700 E10.47079
G1 F600 X34.897 Y103.686 E10.50083
G1 X35.79 Y103.553 E10.53086
G1 X36.826 Y103.498 E10.56536
G1 X37.296 Y103.497 E10.581
G1 X38.199 Y103.535 E10.61106
G1 X39.094 Y103.653 E10.64108
G1 X39.975 Y103.849 E10.6711
G1 X41.041 Y104.201 E10.70844
G1 X41.37 Y104.33 E10.72019
G1 X42.196 Y104.696 E10.75024
G1 X42.985 Y105.135 E10.78027
G1 X44.082 Y105.912 E10.82498
G1 X44.435 Y106.199 E10.84012
G1 X45.109 Y106.799 E10.87013
G1 X45.728 Y107.456 E10.90015
G1 X46.515 Y108.498 E10.94358
G1 X47.05 Y109.354 E10.97716
G1 X47.513 Y110.257 E11.01091
G1 X47.852 Y111.095 E11.04097
G1 X48.115 Y111.958 E11.07098
G1 X48.238 Y112.495 E11.0893
G1 X48.326 Y112.934 E11.1042
G1 X48.464 Y113.827 E11.13425
G1 X48.523 Y114.728 E11.16428
G1 X48.502 Y115.631 E11.19432
G1 X48.4 Y116.528 E11.22435
G1 X48.3 Y117.071 E11.24271
G1 X48.222 Y117.436 E11.25513
G1 X47.994 Y118.31 E11.28517
G1 X47.771 Y118.956 E11.3079
G1 X47.669 Y119.222 E11.31738
G1 X47.308 Y120.05 E11.34742
G1 X46.876 Y120.843 E11.37745
G1 X46.376 Y121.595 E11.40749
G1 X46.003 Y122.073 E11.42766
G1 X45.739 Y122.392 E11.44143
G1 X45.133 Y123.062 E11.47147
G1 X44.47 Y123.675 E11.50151
G1 X43.756 Y124.227 E11.53152
G1 X43.17 Y124.61 E11.55481
G1 X42.893 Y124.778 E11.56558
G1 X42.101 Y125.212 E11.59562
G1 X40.864 Y125.722 E11.64012
G1 X40.612 Y125.807 E11.64897
G1 X39.744 Y126.057 E11.67901
G1 X38.323 Y126.303 E11.72698
G1 X37.246 Y126.371 E11.76287
G1 X36.243 Y126.351 E11.79624
G1 X35.345 Y126.252 E11.82629
G1 X34.576 Y126.103 E11.85234
G1 X34.226 Y126.021 E11.8643
G1 X33.357 Y125.776 E11.89432
G1 X32.513 Y125.456 E11.92435
G1 X31.7 Y125.062 E11.9544
G1 X30.639 Y124.401 E11.99597
G1 X30.327 Y124.179 E12.00871
G1 X29.616 Y123.623 E12.03873
G1 X28.956 Y123.007 E12.06876
G1 X28.545 Y122.562 E12.0889
G1 X28.311 Y122.293 E12.10076
G1 X27.749 Y121.586 E12.1308
G1 X27.252 Y120.833 E12.16081
G1 X26.821 Y120.033 E12.19103
G1 X26.668 Y119.716 E12.20274
G1 X26.312 Y118.886 E12.23278
G1 X26.03 Y118.028 E12.26282
G1 X25.826 Y117.148 E12.29286
G1 X25.695 Y116.193 E12.32492
G1 X25.663 Y115.836 E12.33684
G1 X25.622 Y114.933 E12.36691
G1 X25.661 Y114.031 E12.39694
G1 X25.797 Y113.045 E12.43004
G1 X25.878 Y112.613 E12.44466
G1 X26.083 Y111.734 E12.47468
G1 X26.366 Y110.876 E12.50473
G1 X26.844 Y109.805 E12.54374
G1 X26.992 Y109.519 E12.55445
G1 X27.442 Y108.736 E12.58449
G1 X27.96 Y107.996 E12.61453
G1 X28.44 Y107.417 E12.63955
G1 X28.713 Y107.111 E12.65319
G1 X29.343 Y106.464 E12.68322
G1 X30.028 Y105.876 E12.71325
G1 X30.763 Y105.35 E12.74331
G1 X31.541 Y104.892 E12.77334
G1 X32.639 Y104.39 E12.81349
G1 X33.163 Y104.187 E12.83218
G1 X34.019 Y103.898 E12.86223
G1 F2700 E7.86223
;MESH:guia-2.stl(1)
G0 F7500 X36.625 Y113.082
G0 X36.94 Y114.128
G0 X37.186 Y115.123
;TYPE:WALL-INNER
G1 F2700 E12.86223
G1 F555.6 X37.206 Y115.112 E12.86305
G1 F554.3 X37.289 Y114.941 E12.86989
G1 X37.275 Y114.856 E12.873
G1 X37.082 Y114.709 E12.88173
